!!!!SEGMENT: pl-gd--ee-1638--006-007_marenzio-luca--il-quinto-libro-de-madrigalia-a-cinque-voci-consumando-mi-vo.krn
!!!cenid: 15xx:889
!!!COM: Marenzio, Luca
!!!COM-rismid: pe30003955
!!!CDT: ~1553-1599/08/22
!!!CNT: Italian
!!!GTL: Il Quinto libro de madrigalia a cinque voci
!!!OTL: Consumando mi vò
!!!OMV: 007
!!!PDT: 1585
!!!AGN:
!!!SMS-siglum: PL-GD
!!!SMS-shelfmark: Ee 1638
!!!SMS-variant:
!!!SMS-altvar:
!!!SMS-shelfwork: 006-007 G
!!!NIFC-rismid: 990039296
!!!URL-scan: https://repozytorium.nifc.pl/islandora/object/pl-gd%3A57883/datastream/PDF/view
!!!ONB-nifc:
!!!AIN: 1 alto 1 bass 1 soprn 1 tenor   1 vox
!!!key: C
**kern	**text	**kern	**text	**kern	**text	**kern	**text	**kern	**text
*part5	*part5	*part4	*part4	*part3	*part3	*part2	*part2	*part1	*part1
*staff5	*staff5	*staff4	*staff4	*staff3	*staff3	*staff2	*staff2	*staff1	*staff1
*I"BASSO	*	*I"TENORE 	*	*I"QVINTO 	*	*I"ALTO	*	*I"CANTO	*
*I'B	*	*I'T	*	*I'V	*	*I'A	*	*I'S	*
*ICvox	*	*ICvox	*	*ICvox	*	*ICvox	*	*ICvox	*
*Ibass	*	*Itenor  	*	*Ivox	*	*Ialto	*	*Isoprn	*
*clefC4	*	*clefC3	*	*clefC3	*	*clefC2	*	*clefG2	*
*k[]	*	*k[]	*	*k[]	*	*k[]	*	*k[]	*
*C:	*	*C:	*	*C:	*	*C:	*	*C:	*
*M2/2	*	*M2/2	*	*M2/2	*	*M2/2	*	*M2/2	*
*met(C|)	*	*met(C|)	*	*met(C|)	*	*met(C|)	*	*met(C|)	*
=1-	=1-	=1-	=1-	=1-	=1-	=1-	=1-	=1-	=1-
!LO:TX:b:t=Conſumando	!	!LO:TX:b:t=Conſumando	!	!LO:TX:b:t=Conſumando	!	!	!	!	!
00r	.	00r	.	00r	.	2r	.	1ee	Con-
.	.	.	.	.	.	1cc\	Con-	.	.
=2-	=2-	=2-	=2-	=2-	=2-	=2-	=2-	=2-	=2-
.	.	.	.	.	.	.	.	1dd	ſu-
.	.	.	.	.	.	1b\	ſu-	.	.
=3-	=3-	=3-	=3-	=3-	=3-	=3-	=3-	=3-	=3-
.	.	.	.	.	.	.	.	1cc	-man-
.	.	.	.	.	.	1a\	-man-	.	.
=4-	=4-	=4-	=4-	=4-	=4-	=4-	=4-	=4-	=4-
.	.	.	.	.	.	.	.	1b	-do
.	.	.	.	.	.	1g\	-do	.	.
=5-	=5-	=5-	=5-	=5-	=5-	=5-	=5-	=5-	=5-
00r	.	1r	.	0r	.	.	.	1a	mi
.	.	.	.	.	.	2f#X\	mi	.	.
=6-	=6-	=6-	=6-	=6-	=6-	=6-	=6-	=6-	=6-
.	.	2r	.	.	.	2g\	vo	1g	vò
.	.	2G/	di	.	.	2d/	di	.	.
=7-	=7-	=7-	=7-	=7-	=7-	=7-	=7-	=7-	=7-
.	.	2A/	pia-	1g	Di	2e/	pia-	2r	.
.	.	2e\	-ggi in	.	.	1c/	-ggi'	2g/	di
=8-	=8-	=8-	=8-	=8-	=8-	=8-	=8-	=8-	=8-
.	.	0g	piag-	2e\	piagg'	.	.	2cc\	pia-
.	.	.	.	2c/	in	1cc\	in	2ee\	-ggi in
=9-	=9-	=9-	=9-	=9-	=9-	=9-	=9-	=9-	=9-
00r	.	.	.	1G	piag-	.	.	1dd	piag-
.	.	.	.	.	.	4b\	piag-	.	.
.	.	.	.	.	.	4a\	.	.	.
=10-	=10-	=10-	=10-	=10-	=10-	=10-	=10-	=10-	=10-
.	.	1G	gia	1g	-gia	2b\	.	1dd	-gia
.	.	.	.	.	.	2b\	-gia	.	.
=11-	=11-	=11-	=11-	=11-	=11-	=11-	=11-	=11-	=11-
.	.	2c/	Il	2g\	Il	2cc\	Il	2ee\	Il
.	.	1F/	di	1f\	di	1a\	di	1cc\	di
=12-	=12-	=12-	=12-	=12-	=12-	=12-	=12-	=12-	=12-
!	!	!	!	!	!	!LO:SIC:v:t=custos g	!	!	!
.	.	2G/	pen-	2d\	pen-	2g\	pen-	2b/	pen-
!	!	!	!	!	!	!LO:LB:g=original	!	!	!
=13-	=13-	=13-	=13-	=13-	=13-	=13-	=13-	=13-	=13-
!	!	!	!	!	!	!	!	!LO:SIC:v:t=custos a	!
00r	.	1A	-ſo-	1c#X	-ſo-	1e	-ſo-	1a	-ſo-
!	!	!	!	!	!	!	!	!LO:LB:g=original	!
=14-	=14-	=14-	=14-	=14-	=14-	=14-	=14-	=14-	=14-
!	!	!	!	!LO:SIC:v:t=custos e	!	!	!	!	!
.	.	2A/	-ſo	2cny/	-ſo	2e/	-ſo	2a/	-ſo
!	!	!	!	!LO:LB:g=original	!	!	!	!	!
.	.	2A/	poi	2e\	poi	2a\	poi	2cc#X\	poi
=15-	=15-	=15-	=15-	=15-	=15-	=15-	=15-	=15-	=15-
!	!	!LO:SIC:v:t=custos B	!	!	!	!	!	!	!
.	.	1d	pian-	1f#X	pian-	1a	pian-	1dd	pian-
!	!	!LO:LB:g=original	!	!	!	!	!	!	!
=16-	=16-	=16-	=16-	=16-	=16-	=16-	=16-	=16-	=16-
.	.	1B	-go	1fny	-go	1b	-go	1dd#X	-go
=17-	=17-	=17-	=17-	=17-	=17-	=17-	=17-	=17-	=17-
0r	.	2e\	la	2g#X\	la	2b\	la	2ee\	la
.	.	1c#X\	not-	1a\	not-	1e\	not-	1ee\	not-
=18-	=18-	=18-	=18-	=18-	=18-	=18-	=18-	=18-	=18-
.	.	4d\	-te	2f#X\	-te	2a\	-te	4ddny\	-te
.	.	4d\	Ne	.	.	.	.	4dd\	Ne
=19-	=19-	=19-	=19-	=19-	=19-	=19-	=19-	=19-	=19-
2r	.	4e\	ſtat'	2r	.	4r	.	4g/	ſta-
.	.	4f#X\	ho-	.	.	2d/	Ne	4a/	-t(o)'ho-
2G/	Ne	2g\	-mai	4r	.	.	.	2b/	-mai
.	.	.	.	4gny\	Ne	4e/	ſta-	.	.
=20-	=20-	=20-	=20-	=20-	=20-	=20-	=20-	=20-	=20-
4A/	ſta-	1r	.	4c/	ſta-	4f#X\	-to'ho-	2r	.
4B\	-to'ho-	.	.	4d\	-to'ho-	4.g\	-mai	.	.
4.c\	-mai	.	.	4.e\	-mai	.	.	4r	.
.	.	.	.	.	.	8f#\	ſe	.	.
.	.	.	.	.	.	4g\	non	4dd\	ſe
8B\	ſe	.	.	8d\	ſe	.	.	.	.
=21-	=21-	=21-	=21-	=21-	=21-	=21-	=21-	=21-	=21-
4A/	non	0r	.	4e\	non	4.a\	quan-	4cc#X\	non
4.d\	quan-	.	.	4.fny\	quan-	.	.	4.dd\	quan-
!	!	!	!	!	!	!LO:SIC:v:t=custos a	!	!	!
.	.	.	.	.	.	8g\	-to	.	.
!	!	!	!	!	!	!LO:LB:g=original	!	!	!
.	.	.	.	.	.	2a\	la	.	.
8c#X\	-'(t)o	.	.	8e\	-to	.	.	8ee\	do
!LO:SIC:v:t=custos G	!	!	!	!	!	!	!	!LO:SIC:v:t=custos dd	!
4d\	la	.	.	4f#X\	la	.	.	4dd\	la
!LO:LB:g=original	!	!	!	!	!	!	!	!LO:LB:g=original	!
=22-	=22-	=22-	=22-	=22-	=22-	=22-	=22-	=22-	=22-
2G/	lu-	.	.	2g\	lu-	2b\	lu-	2dd\	lu-
2G/	-na	.	.	2g\	-na	2b\	-na	2dd\	-na
=23-	=23-	=23-	=23-	=23-	=23-	=23-	=23-	=23-	=23-
*M3/1	*	*M3/1	*	*M3/1	*	*M3/1	*	*M3/1	*
*met(3)	*	*met(3)	*	*met(3)	*	*met(3)	*	*met(3)	*
*col	*	*col	*	*col	*	*col	*	*col	*
1.C	Rat-	1.g	Rat-	1.e	Rat-	1.cc	Rat-	1.ee	Rat-
2C/	-to	2g\	-to	2e\	-to	2cc\	-to	2ee\	-to
!	!	!	!	!LO:SIC:v:t=custos c	!	!	!	!	!
1C	com'	1e	com'	1c	com'	1cc	com'	1gg	com'
=24-	=24-	=24-	=24-	=24-	=24-	=24-	=24-	=24-	=24-
0F	im-	0fny	im-	0c	im-	0a	im-	0ff	im-
1D	-bru-	1f	-bru-	1d	-bru-	1a	-bru-	1ff	-bru-
=25-	=25-	=25-	=25-	=25-	=25-	=25-	=25-	=25-	=25-
1A	-nir	1cny	-nir	1e	-nir	1a	-nir	1ee	-nir
1.E	veg-	1.B	veg-	1.e	veg-	1.g	veg-	1.ee	veg-
2E/	-gie	2B/	-gie	2e\	-gio	2g\	-gie	2ee\	-gio
=26-	=26-	=26-	=26-	=26-	=26-	=26-	=26-	=26-	=26-
1G	la	1G	la	1B	la	1g	la	1dd	la
!	!	!LO:SIC:v:t=custos B	!	!	!	!	!	!	!
0D	ſe-	0A	ſe-	0d	ſe-	0f#X	ſe-	0dd	ſe-
*Xcol	*	*Xcol	*	*Xcol	*	*Xcol	*	*Xcol	*
!	!	!LO:LB:g=original	!	!	!	!	!	!	!
=27-	=27-	=27-	=27-	=27-	=27-	=27-	=27-	=27-	=27-
*M2/2	*	*M2/2	*	*M2/2	*	*M2/2	*	*M2/2	*
*met(C|)	*	*met(C|)	*	*met(C|)	*	*met(C|)	*	*met(C|)	*
2G/	-ra	2B/	-ra	2d\	-ra	2g\	-ra	4dd\	-ra
.	.	.	.	.	.	.	.	4b/	Soſ-
4r	.	4r	.	4r	.	4r	.	2ee\	-pir
4E/	Soſ-	4B/	Soſ-	4e\	Soſ-	4g#X\	Soſ-	.	.
=28-	=28-	=28-	=28-	=28-	=28-	=28-	=28-	=28-	=28-
2A/	-pir	2c/	-pir	2e\	-pir	2a\	-pir	4r	.
.	.	.	.	.	.	.	.	4ee\	ſo-
4r	.	4r	.	4r	.	4r	.	2ee\	-ſpir
!LO:SIC:v:t=custos c	!	!	!	!	!	!LO:SIC:v:t=custos cc	!	!	!
4A/	ſo-	4e\	ſo-	4a\	ſo-	4cc\	ſo-	.	.
!LO:LB:g=original	!	!	!	!	!	!LO:LB:g=original	!	!	!
=29-	=29-	=29-	=29-	=29-	=29-	=29-	=29-	=29-	=29-
2.cny\	-ſpir	2e\	-ſpir	2.a\	-ſpir	2cc\	-ſpir	4r	.
!	!	!	!	!	!	!	!	!LO:SIC:v:t=custos gg	!
.	.	.	.	.	.	.	.	4ee\	ſo-
!	!	!	!	!	!	!	!	!LO:LB:g=original	!
.	.	4r	.	.	.	2gny\	del	2.gg\	-ſpir
4C/	del	4e\	ſo-	4e\	dal	.	.	.	.
=30-	=30-	=30-	=30-	=30-	=30-	=30-	=30-	=30-	=30-
1G	pet-	4d\	-ſpir	1g	pet-	4b\	pet-	.	.
.	.	4c/	dal	.	.	2cc\	.	4ee\	dal
.	.	2d\	pet-	.	.	.	.	2dd\	pet-
.	.	.	.	.	.	4b\	.	.	.
=31-	=31-	=31-	=31-	=31-	=31-	=31-	=31-	=31-	=31-
4.C/	-to e	4g\	-to e	4e\	-to e	2cc\	-to	4ee\	-to e
.	.	4e\	da	4a\	da	.	.	4ccny\	da
8D/	da	.	.	.	.	.	.	.	.
1E/	glo-	1e\	glo-	1g\	gio-	2r	.	2b/	glo-
=32-	=32-	=32-	=32-	=32-	=32-	=32-	=32-	=32-	=32-
.	.	.	.	.	.	1r	.	4b/	cchi
.	.	.	.	.	.	.	.	4cc\	eſcõ
4D/	-cch'	2A/	-cchi	4fny\	-cch'e	.	.	4dd\	on-
!	!	!	!	!LO:SIC:v:t=custos a	!	!	!	!	!
4E/	eſcon	.	.	4g\	eſcon	.	.	8cc\	.
.	.	.	.	.	.	.	.	8b\	.
!	!	!	!	!LO:LB:g=original	!	!	!	!	!
=33-	=33-	=33-	=33-	=33-	=33-	=33-	=33-	=33-	=33-
4F/	on-	1r	.	4a\	on-	4c/	e	4a/	.
8E/	.	.	.	8g\	.	4d/	da	4b/	.
8D/	.	.	.	8f\	.	.	.	.	.
4C/	.	.	.	1g\	.	1e\	gl'o-	1cc\	.
4D/	.	.	.	.	.	.	.	.	.
=34-	=34-	=34-	=34-	=34-	=34-	=34-	=34-	=34-	=34-
4E/	.	4G/	e	.	.	.	.	.	.
4F/	.	4A/	da	.	.	.	.	.	.
2G/	.	2B/	glo-	2g\	-de	4d/	-cchi	2b/	-de
.	.	.	.	.	.	4e/	eſ-	.	.
=35-	=35-	=35-	=35-	=35-	=35-	=35-	=35-	=35-	=35-
2D/	de	4A/	-cchi	0r	.	4fny\	-cẽ-	2r	.
!	!	!LO:SIC:v:t=custos c	!	!	!	!	!	!	!
.	.	4A/	eſ-	.	.	8e/	-on.	.	.
.	.	.	.	.	.	8d/	.	.	.
!	!	!LO:LB:g=original	!	!	!	!	!	!	!
2r	.	4c/	-cẽ-	.	.	4e/	.	4g/	eſ-
.	.	8B/	-on	.	.	4f#X\	.	4a/	-con
.	.	8A/	.	.	.	.	.	.	.
=36-	=36-	=36-	=36-	=36-	=36-	=36-	=36-	=36-	=36-
1r	.	4G/	.	.	.	4g\	.	4b/	on
!	!	!	!	!	!	!	!	!LO:SIC:v:t=custos dd	!
.	.	4A/	.	.	.	8fny\	.	4cc\	.
.	.	.	.	.	.	8e\	.	.	.
!	!	!	!	!	!	!	!	!LO:LB:g=original	!
.	.	4B/	.	.	.	4d/	.	4dd\	.
!	!	!	!	!	!	!LO:SIC:v:t=custos f#	!	!	!
.	.	4c/	.	.	.	4e/	.	8cc\	.
.	.	.	.	.	.	.	.	8b\	.
!	!	!	!	!	!	!LO:LB:g=original	!	!	!
=37-	=37-	=37-	=37-	=37-	=37-	=37-	=37-	=37-	=37-
1r	.	1d	.	1r	.	4f#X\	.	4a/	.
.	.	.	.	.	.	2g\	.	4g/	.
.	.	.	.	.	.	.	.	2a/	.
.	.	.	.	.	.	4f#\	.	.	.
=38-	=38-	=38-	=38-	=38-	=38-	=38-	=38-	=38-	=38-
2r	.	1G	de	4r	.	4.g\	de	1b	de
.	.	.	.	2g\	Da	.	.	.	.
.	.	.	.	.	.	16fny\	.	.	.
.	.	.	.	.	.	16e\	.	.	.
2.G/	Da	.	.	.	.	2d/	.	.	.
.	.	.	.	4f\	ba-	.	.	.	.
=39-	=39-	=39-	=39-	=39-	=39-	=39-	=39-	=39-	=39-
.	.	2.g\	Da	2e\	-gnar	1ryy	.	2r	.
!LO:SIC:v:t=custos B	!	!	!	!	!	!	!	!	!
4A/	ba-	.	.	.	.	.	.	.	.
!LO:LB:g=original	!	!	!	!	!	!	!	!	!
2B\	-gnar	.	.	2d\	l'her-	.	.	2.g/	Da
.	.	4f\	bag-	.	.	.	.	.	.
=40-	=40-	=40-	=40-	=40-	=40-	=40-	=40-	=40-	=40-
2c\	l'her-	2e\	-nar	2c/	-be	2.g\	Da	.	.
.	.	.	.	.	.	.	.	4a/	ba-
2G/	-be	2d\	l her-	2r	.	.	.	2b/	-gnar
.	.	.	.	.	.	4f\	bag-	.	.
=41-	=41-	=41-	=41-	=41-	=41-	=41-	=41-	=41-	=41-
2r	.	2c/	-be	2.g\	Da	2e/	-nar	2cc\	l'her-
2.G/	Da	2r	.	.	.	2d/	l her-	2g/	-be
.	.	.	.	4f\	ba-	.	.	.	.
=42-	=42-	=42-	=42-	=42-	=42-	=42-	=42-	=42-	=42-
.	.	2.g\	Da	2e\	-gnar	1G	-be	2r	.
4A/	bag-	.	.	.	.	.	.	.	.
2B\	-nar	.	.	4.d\	l'her-	.	.	2.g/	Da
.	.	4f\	bag-	.	.	.	.	.	.
.	.	.	.	8d\	-be	.	.	.	.
=43-	=43-	=43-	=43-	=43-	=43-	=43-	=43-	=43-	=43-
2c\	l'her-	2e\	-nar	4.c/	da	2.g\	Da	.	.
.	.	.	.	.	.	.	.	4a/	ba-
!	!	!	!	!LO:SIC:v:t=custos B	!	!	!	!	!
.	.	.	.	8c/	crol-	.	.	.	.
!	!	!	!	!LO:LB:g=original	!	!	!	!	!
2G/	-be	4.d\	l'her-	4.B/	-la-	.	.	2b/	-gnar
.	.	.	.	.	.	4f\	bag-	.	.
.	.	8d\	-be e	8B/	-re i	.	.	.	.
=44-	=44-	=44-	=44-	=44-	=44-	=44-	=44-	=44-	=44-
2.g\	Da	4.c/	da	2c/	boſ-	2e/	-nar	4.ee\	l'her-
!	!	!LO:SIC:v:t=custos B	!	!	!	!	!	!	!
.	.	8c\	crol-	.	.	.	.	8cc\	-be
!	!	!LO:LB:g=original	!	!	!	!	!	!	!
.	.	4.B/	-la-	2G/	-chi	4.d/	l'her-	4.dd\	da
4f\	bag-	.	.	.	.	.	.	.	.
!	!	!	!	!	!	!	!	!LO:SIC:v:t=custos ee	!
.	.	8B/	-re i	.	.	8d/	-be e	8dd\	crol-
!	!	!	!	!	!	!	!	!LO:LB:g=original	!
=45-	=45-	=45-	=45-	=45-	=45-	=45-	=45-	=45-	=45-
2e\	-nar	2c/	boſ-	2.g\	Da	4.c/	da	4.ee\	-la-
!	!	!	!	!	!	!LO:SIC:v:t=custos B	!	!	!
.	.	.	.	.	.	8c/	crol-	8ee\	-re i
!	!	!	!	!	!	!LO:LB:g=original	!	!	!
4.d\	l'her-	2G/	-chi	.	.	4.B/	-la-	2gg\	boſ-
.	.	.	.	4f\	ba-	.	.	.	.
8d\	-be e	.	.	.	.	8B/	-re i	.	.
=46-	=46-	=46-	=46-	=46-	=46-	=46-	=46-	=46-	=46-
4.c\	da	2.g\	Da	2e\	-gnar	2c/	boſ-	0gg	-chi
8c\	crol-	.	.	.	.	.	.	.	.
4.B\	-la-	.	.	4.d\	l'er-	2G/	-chi	.	.
.	.	4f\	ba-	.	.	.	.	.	.
!LO:SIC:v:t=custos c	!	!	!	!	!	!	!	!	!
8B\	-re i	.	.	8d\	-be e	.	.	.	.
!LO:LB:g=original	!	!	!	!	!	!	!	!	!
=47-	=47-	=47-	=47-	=47-	=47-	=47-	=47-	=47-	=47-
2c\	boſ-	2e\	-gnar	4.c/	da	2g\	e	.	.
.	.	.	.	8c/	crol-	.	.	.	.
4G/	-chi	4.d\	l'er-	4.B/	-la-	4.g\	da	.	.
4G/	e	.	.	.	.	.	.	.	.
.	.	8d\	-be e	8B/	-re i	8g\	crol-	.	.
=48-	=48-	=48-	=48-	=48-	=48-	=48-	=48-	=48-	=48-
4.F/	da	4.f\	da	2c/	boſ-	4.a\	-la-	2r	.
8F/	crol-	8f\	crol-	.	.	8a\	-re i	.	.
4.E/	-la-	4.g\	-la-	2G/	-chi	2cc\	boſ-	4r	.
.	.	.	.	.	.	.	.	4gg\	e
8E/	-re i	8g\	-re i	.	.	.	.	.	.
=49-	=49-	=49-	=49-	=49-	=49-	=49-	=49-	=49-	=49-
2F/	boſ-	2a\	boſ-	2r	.	1cc	-chi	4.ff\	da
.	.	.	.	.	.	.	.	8ff\	crol-
4C/	-chi	2g\	-chi	4r	.	.	.	4.ee\	-la-
4c\	e	.	.	4e\	e	.	.	.	.
.	.	.	.	.	.	.	.	8ee\	-re i
=50-	=50-	=50-	=50-	=50-	=50-	=50-	=50-	=50-	=50-
4.B-X\	da	4r	.	4.d\	da	2r	.	2ff\	boſ-
.	.	4f\	e	.	.	.	.	.	.
!	!	!	!	!LO:SIC:v:t=custos c	!	!	!	!	!
8B-\	crol-	.	.	8d\	crol-	.	.	.	.
!	!	!	!	!LO:LB:g=original	!	!	!	!	!
4.A/	-la-	4.a\	da	4.c/	-la-	4r	.	4cc\	-chi
.	.	.	.	.	.	4cc\	-e	4ee\	e
!	!	!LO:SIC:v:t=custos d	!	!	!	!	!	!	!
8A/	-re i	8a\	crol-	8c/	-re i	.	.	.	.
!	!	!LO:LB:g=original	!	!	!	!	!	!	!
=51-	=51-	=51-	=51-	=51-	=51-	=51-	=51-	=51-	=51-
2B-X\	boſ-	4.d\	-la-	2f\	boſ-	4.b-X\	da	4.dd\	da
.	.	8d\	re i	.	.	8b-\	crol-	8dd\	crol-
4F/	-chi	2A/	boſ-	4f\	-chi	4.a\	-la-	4.cc\	-la-
4A/	e	.	.	4e\	e	.	.	.	.
.	.	.	.	.	.	8a\	-re i	8cc\	-re i
=52-	=52-	=52-	=52-	=52-	=52-	=52-	=52-	=52-	=52-
4.G/	da	2B/	-chi	4.g\	da	2d/	boſ-	2b/	boſ-
!LO:SIC:v:t=custos F#	!	!	!	!	!	!	!	!	!
8G/	crol-	.	.	8g\	crol-	.	.	.	.
!LO:LB:g=original	!	!	!	!	!	!	!	!	!
4.F#X/	-la-	4r	.	4.a\	-la-	4d/	-chi	4a/	-chi
!	!	!	!	!	!	!LO:SIC:v:t=custos d	!	!LO:SIC:v:t=custos dd	!
.	.	4d\	e	.	.	4A/	e	4dd\	e
8F#/	-re i	.	.	8a\	-re i	.	.	.	.
!	!	!	!	!	!	!LO:LB:g=original	!	!LO:LB:g=original	!
=53-	=53-	=53-	=53-	=53-	=53-	=53-	=53-	=53-	=53-
0G	boſ-	4.B/	da	0g	boſ-	4.d/	da	4.dd\	da
.	.	8B/	crol-	.	.	8d/	crol-	8dd\	crol-
.	.	4.c/	-la-	.	.	4.e/	-la-	4.cc\	-la-
.	.	8c/	-re	.	.	8e/	-re i	8cc\	-re i
=54-	=54-	=54-	=54-	=54-	=54-	=54-	=54-	=54-	=54-
.	.	1d	boſ-	.	.	1d	boſ-	4b/	boſ-
.	.	.	.	.	.	.	.	2cc\	.
.	.	.	.	.	.	.	.	4b/	.
=55-	=55-	=55-	=55-	=55-	=55-	=55-	=55-	=55-	=55-
00C	-schi.	00c	-schi.	00e	-schi.	00g	-schi.	00cc	-schi.
==	==	==	==	==	==	==	==	==	==
*-	*-	*-	*-	*-	*-	*-	*-	*-	*-
!!!system-decoration: [(s1,s2,s3,s4,s5)]
!!!ENC: Marta Opryszak
!!!END: 2022-06-08
!!!ENC: Jan Barakat
!!!END: 2022-07-19
